!!!!SEGMENT: pl-wtm--iii-41-706_kagan-jakub--stimulant.krn
!!!cenid: 19xx:11
!!!COM: Kagan, Jakub
!!!COM-rismID: pe50046719
!!!CDT: 1896/02/07-1942
!!!CNT: Polish
!!!OTL: Stimulant
!!!PDT:
!!!AGN: Secular
!!!YEC: Copyright 2022 Narodowy Instytut Fryderyka Chopina (https://polishscores.org)
!!!YEM: License CC-BY-4.0 (https://creativecommons.org/licenses/by/4.0)
!!!SMS-siglum: PL-Wtm
!!!SMS-shelfmark: III.41.706
!!!SMS-variant:
!!!SMS-altvar:
!!!SMS-shelfwork: W
!!!NIFC-rismSourceID: 1001147375
!!!NIFC-rismChildID: 1001147375
!!!NIFC-islandoraID: pl-wtm:20895
!!!URL-pdf-islandora: https://repozytorium.nifc.pl/islandora/object/pl-wtm%3A20895/datastream/PDF/view
!!!URL-scan: https://polish.musicsources.pl/pl/lokalizacje/galeria/druki-muzyczne/17587/2 @EN{Scan on Polish Music Sources Website} @PL{Skany w portalu Dziedzictwo Muzyki Polskiej w otwartym dostępie}
!!!IIIF:
!!!ONB-nifc:
!!!AIN: 1 forte
!!!key: A
**kern	**kern	**dynam
*part1	*part1	*part1
*staff2	*staff1	*
*I"Piano	*I"Piano	*
*I'P-no	*I'P-no	*
*Iforte	*Iforte	*
*ICklav	*ICklav	*
*clefF4	*clefG2	*
*k[f#c#g#]	*k[f#c#g#]	*
*A:	*A:	*
*M3/4	*M3/4	*
=1	=1	=1
*	*^	*
!	!	!LO:TX:a:t=[segno]	!
!	!LO:TX:B:a:t=Valse lente.	!	!
4AAA\ 4AA	4.E</ 4.e	4r	.
4r	.	4A\ 4c#	p
!	!	!	!LO:HP:a
.	(8D#X</L 8d#X	.	<
4r	8E</ 8e	4ryy	.
.	8E#X</J) 8e#X	.	.
=2	=2	=2	=2
4EEE\ 4EE	4.F#</ 4.f#	4r	[
4r	.	4A\ 4c#	.
!	!	!	!LO:HP:a
.	(8E#X</L 8e#X	.	<
4r	8F#</ 8f#	4r	.
.	8F##X</J) 8f##X	.	.
=3	=3	=3	=3
4BBB\ 4BB	[2.G#</ [2.g#	4r	[ f
4r	.	4B\ 4d	.
4r	.	4B\ 4d	.
=4	=4	=4	=4
4EEE\ 4EE	2G#</] 2g#]	4r	.
4r	.	4B\ 4d	.
4r	4Gn</ 4gn	4ryy	.
=5	=5	=5	=5
4BBB\ 4BB	4.F#</ 4.f#	4r	.
4r	.	4B\ 4d	.
!	!	!	!LO:HP:a
.	8A</L 8a	.	>
4r	8G#</ 8g#	4ryy	.
.	8Gn</J 8gn	.	.
=6	=6	=6	=6
4EEE\ 4EE	4.F#/ 4.f#	4r	]
4r	.	4B\ 4d	.
!	!	!	!LO:HP:a
.	8G#</L 8g#	.	>
4r	8F#</ 8f#	4ryy	.
.	8Fn</J 8fn	.	.
!!LO:LB:g=original
=7	=7	=7	=7
4AAA\ 4AA	[2.E</ [2.e	4r	]
4r	.	4A\ 4c#	p
4r	.	4A\ 4c#	.
=8	=8	=8	=8
4EEE\ 4EE	2.E</] 2.e]	4r	.
4r	.	4A\ 4c#	.
4r	.	4A\ 4c#	.
=9	=9	=9	=9
4AAA\ 4AA	4.E</ 4.e	4r	.
4r	.	4A\ 4c#	.
!	!	!	!LO:HP:a
.	8D#X</L 8d#X	.	<
4r	8E</ 8e	4ryy	.
.	8E#X</J 8e#X	.	.
=10	=10	=10	=10
4EEE\ 4EE	4.F#</ 4.f#	4r	[
4r	.	4A\ 4c#	.
!	!	!	!LO:HP:a
.	8E#X</L 8e#X	.	>
4r	8F#</ 8f#	4ryy	.
.	8G#</J 8g#	.	.
=11	=11	=11	=11
2FF#\ 2F#	[2.B</ [2.b	4r	]
.	.	4c#\ 4f#	f
4r	.	4c#\ 4f#	.
=12	=12	=12	=12
2AAA\ 2AA	2B</] 2b]	4r	.
.	.	4c#\ 4f#	.
4r	4A</ 4a	4ryy	.
!!LO:LB:g=original
=13	=13	=13	=13
2BBB\ 2BB	4.G#</ 4.g#	4r	.
.	.	4B\ 4e	.
!	!	!	!LO:HP:a
.	(<8B</L 8b	.	>
4r	8A#X</ 8a#X	4ryy	.
.	8An</J) 8an	.	.
=14	=14	=14	=14
2BBB\ 2BB	4.F#</ 4.f#	4r	]
.	.	4B\ 4d#X	.
!	!	!	!LO:HP:a
.	(<8A</L 8a	.	>
4r	8G#</ 8g#	4ryy	.
.	8F#</J) 8f#	.	.
=15	=15	=15	=15
2.ryy	(2.Fn</ (2.fn	4r	]
.	.	4B\ 4d	.
!	!LO:TX:b:i:t=rit.	!	!
.	.	4B\ 4d	.
=16	=16	=16	=16
*^	*	*	*
4BB/	2EE\	2E</) 2e)	4r	.
4GG#/	.	.	4G#\ 4d	.
4FF#/	4ryy	4E</ 4e	4ryy	.
*v	*v	*	*	*
=17	=17	=17	=17
4AAA\ 4AA	4.E</ 4.e	4r	.
!	!LO:TX:b:i:t=a tempo	!	!
4r	.	4A\ 4c#	.
!	!	!	!LO:HP:a
.	(8D#X</L 8d#X	.	<
4r	8E</ 8e	4ryy	.
.	8E#X</J) 8e#X	.	.
=18	=18	=18	=18
4EEE\ 4EE	4.F#</ 4.f#	4r	[
4r	.	4A\ 4c#	.
!	!	!	!LO:HP:a
.	(8E#X</L 8e#X	.	<
4r	8F#</ 8f#	4ryy	.
.	8F##X</J) 8f##X	.	.
!!LO:LB:g=original
=19	=19	=19	=19
4BBB\ 4BB	[2.G#</ [2.g#	4r	[ f
4r	.	4B\ 4d	.
4r	.	4B\ 4d	.
=20	=20	=20	=20
4EEE\ 4EE	2G#</] 2g#]	4r	.
4r	.	4B\ 4d	.
4r	4Gn</ 4gn	4ryy	.
=21	=21	=21	=21
4BBB\ 4BB	4.F#</ 4.f#	4r	.
4r	.	4B\ 4d	.
!	!	!	!LO:HP:a
.	(<8A</L 8a	.	>
4r	8G#</ 8g#	4ryy	.
.	8Gn</J) 8gn	.	.
=22	=22	=22	=22
4EEE\ 4EE	4.F#</ 4.f#	4r	]
4r	.	4B\ 4d	.
!	!	!	!LO:HP:a
.	(<8G#</L 8g#	.	>
4r	8F#</ 8f#	4ryy	.
.	8Fn</J) 8fn	.	.
=23	=23	=23	=23
4AAA\ 4AA	[2.E</ [2.e	4r	]
4r	.	4A\ 4c#	p
4r	.	4A\ 4c#	.
=24	=24	=24	=24
(4AA\	2.E</] 2.e]	4ryy	.
4GG#\	.	4A\ 4c#	.
4GGn\)	.	4A\ 4c#	.
=25	=25	=25	=25
2.FF#\	4.E</ 4.e	4ryy	.
.	.	4A\ 4c#	.
.	(<8C#</L 8c#	.	.
.	8D</ 8d	4ryy	.
.	8E</J) 8e	.	.
!!LO:LB:g=original
=26	=26	=26	=26
2.FF#\ 2.AA	4.B</ 4.b	4r	.
.	.	4c#\ 4f#	.
.	(<8G#</L 8g#	.	.
.	8A</ 8a	4ryy	.
.	8B</J) 8b	.	.
=27	=27	=27	=27
4DD#X/	[<2.cn/ [2.ccn	4r	f
4D#X\ 4F# 4A	.	4d#X\ 4f# 4a	.
4D#\ 4F# 4A	.	4d#\ 4f# 4a	.
=28	=28	=28	=28
4D\ 4F# 4A	4c/] 4cc]	4d#X\ 4f# 4a	.
4r	8ryy	4r	.
.	(8a/L	.	.
4r	8f#/	4r	.
.	8d#X/J)	.	.
*	*v	*v	*
=29	=29	=29
4EE/	(4.e/	<
2G#\	.	.
.	8d#X/L	.
.	8e/	.
.	8e#X/J)	[[
=30	=30	=30
4EE/	(4.f#/	.
2E\	.	.
.	8fn/L	.
.	8f#X/	.
.	8cc#/J)	.
=31	=31	=31
4AA/	[2.c#/ [2.e [2.a	p
4EE/	.	.
4CC#/	.	.
=32	=32	=32
4AAA/	4c#/] 4e] 4a]	.
4r	4r	.
!	!LO:TX:b:t=Fine.	!
4r	4r	.
!!LO:PB:g=original
==33	==33	==33
*^	*^	*
!	!	!	!	!LO:DY:rj
4r	2.FF#\ 2.C#	2.cc#\ 2.ccc#	4r	f
4F#/ 4c#	.	.	4ff#/ 4aa	.
4F#/ 4c#	.	.	4ff#/ 4aa	.
=34	=34	=34	=34	=34
4r	2.FF#\ 2.D	4.dd\ 4.ddd	4r	.
4F#/ 4d	.	.	4ff#/ 4bb	.
.	.	(8cc#\L 8ccc#	.	.
4F#/ 4d	.	8b\ 8bb	4ryy	.
.	.	8dd\J) 8ddd	.	.
=35	=35	=35	=35	=35
4r	2.FF#\ 2.C#	2.cc#\ 2.ccc#	4ryy	.
4F#/ 4c#	.	.	4ff#/ 4aa	.
4F#/ 4c#	.	.	4ff#/ 4aa	.
=36	=36	=36	=36	=36
4r	2.FF#\ 2.C#	2.f#\ 2.ff#	4r	.
4F#/ 4c#	.	.	4a/ 4cc#	.
4F#/ 4c#	.	.	4a/ 4cc#	.
=37	=37	=37	=37	=37
4r	2.FF#\ 2.C#	2b\ 2bb	4r	.
4B/ 4c# 4e#X	.	.	4cc#/ 4ee#X	.
4B/ 4c# 4e#	.	4b\ 4bb	4ryy	.
=38	=38	=38	=38	=38
4r	2.FF#\ 2.C#	4.b\ 4.bb	4r	.
4B/ 4c# 4e#X	.	.	4cc#/ 4ee#X	.
.	.	(8a\L 8aa	.	.
4B/ 4c# 4e#	.	8g#\ 8gg#	4ryy	.
.	.	8b\J) 8bb	.	.
!!LO:LB:g=original
=39	=39	=39	=39	=39
4r	2.FF#\ 2.C#	4rd	2.a\ 2.aa	.
4F#/ 4c#	.	4cc#/ 4ff#	.	.
4F#/ 4c#	.	4cc#/ 4ff#	.	.
*	*	*v	*v	*
=40	=40	=40	=40
4r	2.FF#\ 2.C#	(4f#\ 4ff#	.
4F#/ 4c#	.	4g#\ 4gg#	.
4F#/ 4c#	.	4a\) 4aa	.
=41	=41	=41	=41
*	*	*^	*
4r	2.FF#\ 2.C#	4rd	2cc#\ 2ccc#	.
4F#/ 4c#	.	4ff#/ 4aa	.	.
4F#/ 4c#	.	4ryy	4cc#\ 4ccc#	.
=42	=42	=42	=42	=42
4r	2.FF#\ 2.D	4rd	4.dd\ 4.ddd	.
4F#/ 4d	.	4ff#/ 4bb	.	.
.	.	.	(>8ee\L 8eee	.
4F#/ 4d	.	4ryy	8ff#\ 8fff#	.
.	.	.	8dd\J) 8ddd	.
=43	=43	=43	=43	=43
4r	2.FF#\ 2.C#	4rd	2.cc#\ 2.ccc#	.
4F#/ 4c#	.	4ff#/ 4aa	.	.
4F#/ 4c#	.	4ff#/ 4aa	.	.
=44	=44	=44	=44	=44
!	!	!	!LO:TX:t=P:problem=brakuje dodanych górnych linii	!
4r	2.AA\	4rd	2.ff#\ 2.fff#	.
4F#/ 4A	.	4aa 4ccc#	.	.
4F#/ 4A	.	4aa 4ccc#	.	.
!!LO:LB:g=original
=45	=45	=45	=45	=45
4r	2.GG#\	4rd	2b#X\ 2bb#X	.
4F#/ 4A 4B#X	.	4dd#X/ 4ff#	.	.
4F#/ 4A 4B#	.	4ryy	4b#\ 4bb#	.
=46	=46	=46	=46	=46
4r	2.GG#\	4rd	4.b#X\ 4.bb#X	.
4F#/ 4A 4B#X	.	4dd#X/ 4ff#	.	.
.	.	.	(>8a#X\L 8aa#X	.
4F#/ 4A 4B#	.	4ryy	8g#\ 8gg#	.
.	.	.	8b#\J) 8bb#	.
=47	=47	=47	=47	=47
4r	[2.CC#\ [2.GG#	4rd	[2.cc#\ [>2.ccc#	.
(4C#/ 4G#	.	4ee#X/ 4gg#	.	.
!	!	!LO:TX:b:i:t=rall.	!	!
4C#/ 4G#	.	4ee#/ 4gg#	.	.
=48	=48	=48	=48	=48
4C#/ 4B	2.CC#\] 2.GG#]	4rd	2.cc#\] 2.ccc#]	.
4C#/ 4A	.	4ee/ 4gg#	.	.
4C#/) 4G#	.	4ee/ 4gg#	.	.
=49	=49	=49	=49	=49
4r	2.FF#\ 2.C#	4rd	2.cc#\ 2.ccc#	.
!LO:TX:a:i:t=a tempo	!	!	!	!
4F#/ 4c#	.	4ff#/ 4aa	.	.
4F#/ 4c#	.	4ff#/ 4aa	.	.
=50	=50	=50	=50	=50
4r	2.FF#\ 2.D	4rd	4.dd\ 4.ddd	.
4F#/ 4d	.	4ff#/ 4bb	.	.
.	.	.	(>8cc#\L 8ccc#	.
4F#/ 4d	.	4ryy	8b\ 8bb	.
.	.	.	8dd\J) 8ddd	.
!!LO:LB:g=original
=51	=51	=51	=51	=51
4r	2.FF#\ 2.C#	4rd	2.cc#\ 2.ccc#	.
4F#/ 4c#	.	4ff#/ 4aa	.	.
4F#/ 4c#	.	4ff#/ 4aa	.	.
=52	=52	=52	=52	=52
4r	2.FF#\ 2.C#	4rd	2.f#\ 2.ff#	.
4F#/ 4c#	.	4a/ 4cc#	.	.
4F#/ 4c#	.	4a/ 4cc#	.	.
=53	=53	=53	=53	=53
4r	2.FF#\ 2.C#	4rd	2b\ 2bb	.
4B/ 4c# 4e#X	.	4cc#/ 4ee#X	.	.
4B/ 4c# 4e#	.	4ryy	4b\ 4bb	.
=54	=54	=54	=54	=54
4r	2.FF#\ 2.C#	4ryy	4.b\ 4.bb	.
4B/ 4c# 4e#X	.	4cc#/ 4ee#X	.	.
.	.	.	(>8a\L 8aa	.
4B/ 4c# 4e#	.	4ryy	8g#\ 8gg#	.
.	.	.	8b\J) 8bb	.
=55	=55	=55	=55	=55
4r	2.FF#\ 2.C#	4rd	2.a\ 2.aa	.
4F#/ 4c#	.	4cc#/ 4ff#	.	.
4F#/ 4c#	.	4cc#/ 4ff#	.	.
*	*	*v	*v	*
=56	=56	=56	=56
4r	2.FF#\ 2.C#	(4f#\ 4ff#	.
4F#/ 4c#	.	4g#\ 4gg#	.
4F#/ 4c#	.	4a\) 4aa	.
=57	=57	=57	=57
*	*	*^	*
4r	2.FF#\ 2.C#	4rd	2cc#\ 2ccc#	.
4F#/ 4c#	.	4ff#/ 4aa	.	.
4F#/ 4c#	.	4rd	4cc#\ 4ccc#	.
!!LO:LB:g=original
=58	=58	=58	=58	=58
4r	2.FF#\ 2.D	4rd	4.dd\ 4.ddd	.
4F#/ 4d	.	4ff#/ 4bb	.	.
.	.	.	(>8ee\L 8eee	.
4F#/ 4d	.	4ryy	8ff#\ 8fff#	.
.	.	.	8dd\J) 8ddd	.
=59	=59	=59	=59	=59
4r	2.FF#\ 2.C#	4rd	2cc#\ 2ccc#	<
4F#/ 4c#	.	4ff#/ 4aa	.	.
4F#/ 4c#	.	4ff#/ 4aa	4ryy	.
*v	*v	*	*	*
*	*v	*v	*
=60	=60	=60
8AA^^\ 8C# 8F# 8A	8ff#^^\ 8aa 8ccc# 8fff#	[
8r	8r	.
4r;	4r;	.
4r	4c#/	p
=61	=61	=61
4CC#/	2c#/ 2a	>
2C#/	.	.
.	4c#/ 4a	]]
=62	=62	=62
4CC#/	(4.B/ 4.g#	.
2C#/	.	.
.	8d/L 8cc#	.
.	8c#/ 8a	.
.	8B/J) 8g#	.
=63	=63	=63
4F#\	[2.A/ [2.c# [2.f#	pp
4C#/	.	.
4AA/	.	.
=64	=64	=64
!	!LO:TX:B:b:t=D.C. al Fine. [segno]	!
4FF#/	4A/] 4c#] 4f#]	.
4r	4r	.
4ryy	4E</ 4e	.
==	==	==
*-	*-	*-
!!!system-decoration: [(s1,s2)]
!!!RDF**kern: > = above
!!!RDF**kern: < = below
!!!ENC: Andrzej Gręziak
!!!END: 2023-09-09
!!!ENC: Leszek Kubiak
!!!END: 2023-10-04
